X: 1
T: Miss Laura Andrew
C: J.S.Skinner
R: air
Z: 2014 John Chambers <jc:trillian.mit.edu>
S: page from Concord Slow Scottish Session collection
B: Hunter
M: C
L: 1/8
K: D
A2 |\
"D"d4 "A7"(fe)dc | "D"d2D2 "D7"F2A2 | "G"B3G "D"A3F | "A7"G2E2 C2A,2 |\
"D"d4 "A7"(fe)dc | "D"d2D2 "D7"F2A2 | "G"BAGF "A7"E3D | "D"D4 D2 :|
(fg) |\
"D"a3f d2a2 | "D"f2a2 d2a2 | "A7"e3c A2e2 | "A7"c2e2 A2g2 |\
"D"a3f d2a2 | "D"f2a2 "D7"d2a2 | "G"bagf "A7"e3d | "D"d4 d2 |]
(fg) |\
"D"a3f d2a2 | "D"(fg)a2 d2a2 | "A7"e3c A2e2 | "A7"(cd)e2 A2(Bc) |\
"D"d4 "A7"(fe)dc | "D"d2D2 "D7"F2A2 | "G"BAGF "A7"E3D | "D"D4 D2 |]
